icons/svg/flash-auto.svg

<svg xmlns="http://www.w3.org/2000/svg" version="1.1" baseProfile="full" width="24" height="24" viewBox="0 0 24.00 24.00" xml:space="preserve"><path fill="#000" fill-opacity="1" stroke-linejoin="round" d="M16.85 7.65L18 4l1.15 3.65M19 2h-2l-3.2 9h1.9l.7-2h3.2l.7 2h1.9M3 2v12h3v9l7-12H9l4-9H3z"/></svg>

﻿<?xml version="1.0" encoding="utf-8"?>
<!DOCTYPE svg PUBLIC "-//W3C//DTD SVG 1.1//EN" "http://www.w3.org/Graphics/SVG/1.1/DTD/svg11.dtd">
<svg xmlns="http://www.w3.org/2000/svg" xmlns:xlink="http://www.w3.org/1999/xlink" version="1.1" baseProfile="full" width="24" height="24" viewBox="0 0 24.00 24.00" enable-background="new 0 0 24.00 24.00" xml:space="preserve">
	<path fill="#000000" fill-opacity="1" stroke-linejoin="round" d="M 16.85,7.65L 18,4L 19.15,7.65M 19,2L 17,2L 13.8,11L 15.7,11L 16.4,9L 19.6,9L 20.3,11L 22.2,11M 3,2L 3,14L 6,14L 6,23L 13,11L 9,11L 13,2L 3,2 Z "/>
</svg>
